X: 137
T: Tobie, rządźca niebieski, Tobie, mój Boże,
C: Mikołaj Gomółka
%%abc-version 2.0
%%abcx-abcm2ps-target-version 5.9.1 (29 Sep 2008)
%%abc-creator hum2abc beta
%%abcx-conversion-date 2021/10/04 07:59:10
%%abc-edited-by Anna Matuszewska
%%abcx-initial-encoding-date 2020-02-22
%%humdrum-veritas 1410375194
%%humdrum-veritas-data 3129088008
%%linebreak <none>
%%barnumbers 0
L: 1/4
M: C|
N: Derived from pl-wn--sd-xvi-qu-273--139_gomolka-mikolaj--tobie-rzadzca-niebieski-tobie-moj-boze.krn
%%staves [1 2 3 4]
V: 1 clef=treble
V: 2 clef=alto
V: 3 clef=alto
V: 4 clef=bass
K: F
[V:1] G2G2d3c | 
[V:2] D2D2G3F | 
[V:3] G,2G,2B,3A, | 
[V:4] G,,2G,,2G,,3A,, [|] 
[V:1] B2B2A2d2 | 
[V:2] D2>E2F2F2 | 
[V:3] G,F,G,2F,2A,2 | 
[V:4] B,,2G,,2D,3E, [|] 
[V:1] c2B4A2 | 
[V:2] F2DE2<F2_E | 
[V:3] A,2B,2C4 | 
[V:4] F,D,G,2F,4 [|] 
[V:1] B2d2c2dc | 
[V:2] D2F2F2F2 | 
[V:3] B,2B,2A,2F,2 | 
[V:4] B,,2B,,2F,2D,2 [|] 
[V:1] B2A2>G2AB | 
[V:2] EDCB,A,2F2 | 
[V:3] G,2A,B,CB,CD | 
[V:4] _E,2F,2F,2F,2 [|] 
[V:1] c2>B2AGG4 | 
[V:2] G2>F2FEDC | 
[V:3] E2>D2CB,A,G, | 
[V:4] C,2>D,2F,2G,2 [|] 
[V:1] F2G2A2 | 
[V:2] D2>C2B,2D2 | 
[V:3] A,4G,2F,2 | 
[V:4] D,4G,,2D,2 [|] 
[V:1] A2c2B3A | 
[V:2] D2C2F2F2 | 
[V:3] F2E2D3C | 
[V:4] D,2A,,2B,,3F,, [|] 
[V:1] GFG2F2F2 | 
[V:2] D4D2D2 | 
[V:3] B,2B,2A,2DC | 
[V:4] G,,A,,B,,C,D,2B,A, [|] 
[V:1] GAB4A2 | 
[V:2] D2G2F3E | 
[V:3] B,2EDCB,C2 | 
[V:4] G,F,_E,2F,2F,,2 [|] 
[V:1] B2d2c2B2 | 
[V:2] D2F2F2DE | 
[V:3] B,2B,2C2D4 | 
[V:4] B,,2B,2A,2G,2 [|] 
[V:1] A2G2F3E | 
[V:2] F2B,CDCDE | 
[V:3] G,2A,2F,2 | 
[V:4] F,2_E,2D,3C, [|] 
[V:1] D2B2A2G4 | 
[V:2] F2G2_E2C2 | 
[V:3] B,2G,2CB,A,G, | 
[V:4] B,,A,,G,,2C,2E,2 [|] 
[V:1] F2G4 |]  
[V:2] D2>C2B,4 |]  
[V:3] A,4G,4 |]  
[V:4] D,4G,,4 | 


